X:451
T:
R:vals
S:Uppt. såsom Karl Kolmodin, Kvie i Lojsta, spelat den för samlaren.
O:Gotland, Lojsta
M:3/4
L:1/8
K:D
A3 GFG|A4 d2|A3 GFG|A4 f2|e3 cAc|e4 f2|e3 cAc|e2 dc d2|A3 GFG|A4 d2|A3 GFG|A4 f2|e3 A^GA|c3 BFG|B3 GFE|D2 z2 z2::(A^G)(AB)(cd)|e2 A^G A2|
f2 A^G A2|g2 A^G A2|(Ac)(ef)(ga)|g2 A^G A2|f2 A^G A2|e2 A^G A2|A2 d3 c|c4 B2|B2 c3 B|B4 A2|B2 g3 f|e4 d2|c2 B2 c2|d4 z2:|

